assets/images/banner-logo3.svg

<svg width="118" height="24" viewBox="0 0 118 24" fill="none" xmlns="http://www.w3.org/2000/svg">
<g clip-path="url(#clip0_11_87)">
<path d="M0.719727 0H12.4456L0.719727 11.7259V0Z" fill="#3C2769"/>
<path d="M12.4456 11.7259H0.719727V23.4518H12.4456V11.7259Z" fill="#3C2769"/>
<path d="M31.6758 16.4995H39.5368V14.3589H34.2721V4.21936H31.6758V16.4995Z" fill="#3C2769"/>
<path d="M44.8631 16.6794C47.6574 16.6794 49.3963 14.7666 49.3963 11.9305C49.3963 9.07623 47.6574 7.16943 44.8631 7.16943C42.069 7.16943 40.3301 9.07623 40.3301 11.9305C40.3301 14.7666 42.069 16.6794 44.8631 16.6794ZM44.875 14.7007C43.5859 14.7007 42.9264 13.5194 42.9264 11.9125C42.9264 10.3055 43.5859 9.11821 44.875 9.11821C46.1403 9.11821 46.8 10.3055 46.8 11.9125C46.8 13.5194 46.1403 14.7007 44.875 14.7007Z" fill="#3C2769"/>
<path d="M54.7 20.1452C57.3325 20.1452 59.2032 18.946 59.2032 16.5895V7.28937H56.6669V8.83639H56.571C56.2291 8.08687 55.4795 7.16943 53.9385 7.16943C51.9179 7.16943 50.209 8.74044 50.209 11.8765C50.209 14.9405 51.8698 16.3676 53.9446 16.3676C55.4136 16.3676 56.2352 15.6301 56.571 14.8686H56.6789V16.5535C56.6789 17.8187 55.8693 18.3104 54.76 18.3104C53.6327 18.3104 53.0631 17.8187 52.8532 17.2611L50.4909 17.5789C50.7967 19.0299 52.2176 20.1452 54.7 20.1452ZM54.7542 14.4488C53.5009 14.4488 52.8173 13.4535 52.8173 11.8645C52.8173 10.2995 53.4889 9.20214 54.7542 9.20214C55.9952 9.20214 56.6908 10.2515 56.6908 11.8645C56.6908 13.4895 55.9833 14.4488 54.7542 14.4488Z" fill="#3C2769"/>
<path d="M64.8904 16.6794C67.6847 16.6794 69.4236 14.7666 69.4236 11.9305C69.4236 9.07623 67.6847 7.16943 64.8904 7.16943C62.0961 7.16943 60.3574 9.07623 60.3574 11.9305C60.3574 14.7666 62.0961 16.6794 64.8904 16.6794ZM64.9024 14.7007C63.6132 14.7007 62.9538 13.5194 62.9538 11.9125C62.9538 10.3055 63.6132 9.11821 64.9024 9.11821C66.1676 9.11821 66.8273 10.3055 66.8273 11.9125C66.8273 13.5194 66.1676 14.7007 64.9024 14.7007Z" fill="#3C2769"/>
<path d="M70.5783 16.4995H73.1327V7.28937H70.5783V16.4995ZM71.8616 6.10212C72.6231 6.10212 73.2467 5.5205 73.2467 4.80695C73.2467 4.09939 72.6231 3.51776 71.8616 3.51776C71.106 3.51776 70.4824 4.09939 70.4824 4.80695C70.4824 5.5205 71.106 6.10212 71.8616 6.10212Z" fill="#3C2769"/>
<path d="M74.6719 19.9534H77.2262V15.0245H77.3043C77.658 15.792 78.4314 16.6494 79.9185 16.6494C82.0172 16.6494 83.6541 14.9885 83.6541 11.9065C83.6541 8.74045 81.9452 7.16943 79.9246 7.16943C78.3836 7.16943 77.646 8.08687 77.3043 8.83639H77.1904V7.28937H74.6719V19.9534ZM77.1723 11.8945C77.1723 10.2515 77.8679 9.20214 79.1092 9.20214C80.3744 9.20214 81.0458 10.2995 81.0458 11.8945C81.0458 13.5014 80.3622 14.6167 79.1092 14.6167C77.8798 14.6167 77.1723 13.5374 77.1723 11.8945Z" fill="#3C2769"/>
<path d="M92.5143 9.91571C92.2863 8.21878 90.9193 7.16943 88.5927 7.16943C86.2363 7.16943 84.6833 8.26074 84.6891 10.0356C84.6833 11.4148 85.5526 12.3082 87.3516 12.668L88.9466 12.9858C89.75 13.1477 90.1159 13.4415 90.1278 13.9032C90.1159 14.4488 89.5221 14.8386 88.6288 14.8386C87.7172 14.8386 87.1117 14.4488 86.9558 13.6993L84.4434 13.8312C84.6833 15.5941 86.1823 16.6794 88.6227 16.6794C91.0092 16.6794 92.7181 15.4622 92.7242 13.6454C92.7181 12.3142 91.8487 11.5167 90.0617 11.1509L88.3947 10.8152C87.5374 10.6293 87.2196 10.3355 87.2257 9.89172C87.2196 9.34006 87.8432 8.98029 88.6347 8.98029C89.5221 8.98029 90.0497 9.46597 90.1757 10.0596L92.5143 9.91571Z" fill="#3C2769"/>
<path d="M99.7325 12.578C99.7386 13.8132 98.8929 14.4608 97.9757 14.4608C97.0102 14.4608 96.3866 13.7832 96.3805 12.6979V7.28937H93.8262V13.1536C93.8323 15.3063 95.0914 16.6194 96.9443 16.6194C98.3294 16.6194 99.3247 15.9059 99.7386 14.8266H99.8345V16.4995H102.287V7.28937H99.7325V12.578Z" fill="#3C2769"/>
<path d="M103.823 16.4995H106.378V10.9711C106.378 9.95168 107.025 9.27411 107.877 9.27411C108.716 9.27411 109.28 9.84974 109.28 10.7552V16.4995H111.756V10.8751C111.756 9.92169 112.302 9.27411 113.231 9.27411C114.047 9.27411 114.658 9.78379 114.658 10.8092V16.4995H117.207V10.3055C117.207 8.30872 116.02 7.16943 114.305 7.16943C112.956 7.16943 111.906 7.85901 111.529 8.91434H111.432C111.139 7.847 110.197 7.16943 108.932 7.16943C107.691 7.16943 106.75 7.82901 106.366 8.91434H106.258V7.28937H103.823V16.4995Z" fill="#3C2769"/>
<path d="M12.4453 0H24.1712L12.4453 11.7259V0Z" fill="#3C2769"/>
<path d="M12.4453 11.7259H24.1712L12.4453 23.4518V11.7259Z" fill="#3C2769"/>
<path d="M31.6758 16.4995H39.5368V14.3589H34.2721V4.21936H31.6758V16.4995Z" fill="#3C2769"/>
<path d="M44.8631 16.6794C47.6574 16.6794 49.3963 14.7666 49.3963 11.9305C49.3963 9.07623 47.6574 7.16943 44.8631 7.16943C42.069 7.16943 40.3301 9.07623 40.3301 11.9305C40.3301 14.7666 42.069 16.6794 44.8631 16.6794ZM44.875 14.7007C43.5859 14.7007 42.9264 13.5194 42.9264 11.9125C42.9264 10.3055 43.5859 9.11821 44.875 9.11821C46.1403 9.11821 46.8 10.3055 46.8 11.9125C46.8 13.5194 46.1403 14.7007 44.875 14.7007Z" fill="#3C2769"/>
<path d="M54.7 20.1452C57.3325 20.1452 59.2032 18.946 59.2032 16.5895V7.28937H56.6669V8.83639H56.571C56.2291 8.08687 55.4795 7.16943 53.9385 7.16943C51.9179 7.16943 50.209 8.74044 50.209 11.8765C50.209 14.9405 51.8698 16.3676 53.9446 16.3676C55.4136 16.3676 56.2352 15.6301 56.571 14.8686H56.6789V16.5535C56.6789 17.8187 55.8693 18.3104 54.76 18.3104C53.6327 18.3104 53.0631 17.8187 52.8532 17.2611L50.4909 17.5789C50.7967 19.0299 52.2176 20.1452 54.7 20.1452ZM54.7542 14.4488C53.5009 14.4488 52.8173 13.4535 52.8173 11.8645C52.8173 10.2995 53.4889 9.20214 54.7542 9.20214C55.9952 9.20214 56.6908 10.2515 56.6908 11.8645C56.6908 13.4895 55.9833 14.4488 54.7542 14.4488Z" fill="#3C2769"/>
<path d="M64.8904 16.6794C67.6847 16.6794 69.4236 14.7666 69.4236 11.9305C69.4236 9.07623 67.6847 7.16943 64.8904 7.16943C62.0961 7.16943 60.3574 9.07623 60.3574 11.9305C60.3574 14.7666 62.0961 16.6794 64.8904 16.6794ZM64.9024 14.7007C63.6132 14.7007 62.9538 13.5194 62.9538 11.9125C62.9538 10.3055 63.6132 9.11821 64.9024 9.11821C66.1676 9.11821 66.8273 10.3055 66.8273 11.9125C66.8273 13.5194 66.1676 14.7007 64.9024 14.7007Z" fill="#3C2769"/>
<path d="M70.5783 16.4995H73.1327V7.28937H70.5783V16.4995ZM71.8616 6.10212C72.6231 6.10212 73.2467 5.5205 73.2467 4.80695C73.2467 4.09939 72.6231 3.51776 71.8616 3.51776C71.106 3.51776 70.4824 4.09939 70.4824 4.80695C70.4824 5.5205 71.106 6.10212 71.8616 6.10212Z" fill="#3C2769"/>
<path d="M74.6719 19.9534H77.2262V15.0245H77.3043C77.658 15.792 78.4314 16.6494 79.9185 16.6494C82.0172 16.6494 83.6541 14.9885 83.6541 11.9065C83.6541 8.74045 81.9452 7.16943 79.9246 7.16943C78.3836 7.16943 77.646 8.08687 77.3043 8.83639H77.1904V7.28937H74.6719V19.9534ZM77.1723 11.8945C77.1723 10.2515 77.8679 9.20214 79.1092 9.20214C80.3744 9.20214 81.0458 10.2995 81.0458 11.8945C81.0458 13.5014 80.3622 14.6167 79.1092 14.6167C77.8798 14.6167 77.1723 13.5374 77.1723 11.8945Z" fill="#3C2769"/>
<path d="M92.5143 9.91571C92.2863 8.21878 90.9193 7.16943 88.5927 7.16943C86.2363 7.16943 84.6833 8.26074 84.6891 10.0356C84.6833 11.4148 85.5526 12.3082 87.3516 12.668L88.9466 12.9858C89.75 13.1477 90.1159 13.4415 90.1278 13.9032C90.1159 14.4488 89.5221 14.8386 88.6288 14.8386C87.7172 14.8386 87.1117 14.4488 86.9558 13.6993L84.4434 13.8312C84.6833 15.5941 86.1823 16.6794 88.6227 16.6794C91.0092 16.6794 92.7181 15.4622 92.7242 13.6454C92.7181 12.3142 91.8487 11.5167 90.0617 11.1509L88.3947 10.8152C87.5374 10.6293 87.2196 10.3355 87.2257 9.89172C87.2196 9.34006 87.8432 8.98029 88.6347 8.98029C89.5221 8.98029 90.0497 9.46597 90.1757 10.0596L92.5143 9.91571Z" fill="#3C2769"/>
<path d="M99.7325 12.578C99.7386 13.8132 98.8929 14.4608 97.9757 14.4608C97.0102 14.4608 96.3866 13.7832 96.3805 12.6979V7.28937H93.8262V13.1536C93.8323 15.3063 95.0914 16.6194 96.9443 16.6194C98.3294 16.6194 99.3247 15.9059 99.7386 14.8266H99.8345V16.4995H102.287V7.28937H99.7325V12.578Z" fill="#3C2769"/>
<path d="M103.823 16.4995H106.378V10.9711C106.378 9.95168 107.025 9.27411 107.877 9.27411C108.716 9.27411 109.28 9.84974 109.28 10.7552V16.4995H111.756V10.8751C111.756 9.92169 112.302 9.27411 113.231 9.27411C114.047 9.27411 114.658 9.78379 114.658 10.8092V16.4995H117.207V10.3055C117.207 8.30872 116.02 7.16943 114.305 7.16943C112.956 7.16943 111.906 7.85901 111.529 8.91434H111.432C111.139 7.847 110.197 7.16943 108.932 7.16943C107.691 7.16943 106.75 7.82901 106.366 8.91434H106.258V7.28937H103.823V16.4995Z" fill="#3C2769"/>
</g>
<defs>
<clipPath id="clip0_11_87">
<rect width="118" height="24" fill="white"/>
</clipPath>
</defs>
</svg>

<svg width="118" height="24" fill="none" xmlns="http://www.w3.org/2000/svg"><g clip-path="url(#clip0_11_87)" fill="#3C2769"><path d="M.72 0h11.726L.72 11.726V0zm11.726 11.726H.72v11.726h11.726V11.726zm19.23 4.774h7.86v-2.141h-5.264V4.219h-2.596V16.5zm13.187.18c2.794 0 4.533-1.913 4.533-4.75 0-2.854-1.739-4.76-4.533-4.76-2.794 0-4.533 1.906-4.533 4.76 0 2.837 1.739 4.75 4.533 4.75zm.012-1.98c-1.29 0-1.949-1.18-1.949-2.787s.66-2.795 1.949-2.795c1.265 0 1.925 1.188 1.925 2.794 0 1.607-.66 2.789-1.925 2.789zm9.825 5.445c2.633 0 4.503-1.199 4.503-3.555v-9.3h-2.536v1.546h-.096c-.342-.75-1.091-1.667-2.633-1.667-2.02 0-3.729 1.571-3.729 4.708 0 3.063 1.66 4.49 3.736 4.49 1.469 0 2.29-.737 2.626-1.498h.108v1.684c0 1.266-.81 1.757-1.919 1.757-1.127 0-1.697-.491-1.907-1.049l-2.362.318c.306 1.45 1.727 2.566 4.209 2.566zm.054-5.696c-1.253 0-1.937-.995-1.937-2.585 0-1.565.672-2.662 1.937-2.662 1.241 0 1.937 1.05 1.937 2.662 0 1.625-.708 2.585-1.937 2.585zM64.89 16.68c2.795 0 4.534-1.913 4.534-4.75 0-2.854-1.74-4.76-4.534-4.76-2.794 0-4.533 1.906-4.533 4.76 0 2.837 1.74 4.75 4.533 4.75zm.012-1.98c-1.289 0-1.948-1.18-1.948-2.787s.66-2.795 1.948-2.795c1.266 0 1.925 1.188 1.925 2.794 0 1.607-.66 2.789-1.925 2.789zm5.676 1.8h2.555V7.29h-2.555v9.21zm1.284-10.398c.761 0 1.385-.582 1.385-1.295 0-.708-.624-1.29-1.385-1.29-.756 0-1.38.582-1.38 1.29 0 .713.624 1.295 1.38 1.295zm2.81 13.851h2.554v-4.928h.078c.354.767 1.127 1.624 2.614 1.624 2.1 0 3.736-1.66 3.736-4.743 0-3.166-1.709-4.737-3.73-4.737-1.54 0-2.278.918-2.62 1.667h-.114V7.29h-2.518v12.664zm2.5-8.058c0-1.643.696-2.693 1.937-2.693 1.265 0 1.937 1.098 1.937 2.693 0 1.606-.684 2.722-1.937 2.722-1.23 0-1.937-1.08-1.937-2.723zm15.342-1.979c-.228-1.697-1.595-2.747-3.921-2.747-2.357 0-3.91 1.092-3.904 2.867-.006 1.379.864 2.272 2.663 2.632l1.595.318c.803.162 1.169.455 1.18.917-.011.546-.605.936-1.498.936-.912 0-1.517-.39-1.673-1.14l-2.513.132c.24 1.763 1.74 2.848 4.18 2.848 2.386 0 4.095-1.217 4.101-3.034-.006-1.33-.875-2.128-2.662-2.494l-1.667-.336c-.858-.186-1.175-.48-1.17-.923-.005-.552.618-.912 1.41-.912.887 0 1.415.486 1.54 1.08l2.34-.144zm7.219 2.662c.006 1.235-.84 1.883-1.757 1.883-.966 0-1.59-.678-1.596-1.763V7.289h-2.554v5.865c.006 2.152 1.265 3.465 3.118 3.465 1.385 0 2.38-.713 2.795-1.792h.096V16.5h2.452V7.29h-2.555v5.288zm4.09 3.922h2.555v-5.53c0-1.02.647-1.697 1.499-1.697.839 0 1.403.576 1.403 1.481V16.5h2.476v-5.625c0-.953.546-1.6 1.475-1.6.816 0 1.427.509 1.427 1.534v5.69h2.549v-6.193c0-1.997-1.187-3.137-2.902-3.137-1.349 0-2.399.69-2.776 1.745h-.097c-.293-1.067-1.235-1.745-2.5-1.745-1.241 0-2.182.66-2.566 1.745h-.108V7.29h-2.435v9.21z"/><path d="M12.445 0h11.726L12.445 11.726V0zm0 11.726h11.726L12.445 23.452V11.726zM31.676 16.5h7.86v-2.141h-5.264V4.219h-2.596V16.5zm13.187.18c2.794 0 4.533-1.913 4.533-4.75 0-2.854-1.739-4.76-4.533-4.76-2.794 0-4.533 1.906-4.533 4.76 0 2.837 1.739 4.75 4.533 4.75zm.012-1.98c-1.29 0-1.949-1.18-1.949-2.787s.66-2.795 1.949-2.795c1.265 0 1.925 1.188 1.925 2.794 0 1.607-.66 2.789-1.925 2.789zm9.825 5.445c2.633 0 4.503-1.199 4.503-3.555v-9.3h-2.536v1.546h-.096c-.342-.75-1.091-1.667-2.633-1.667-2.02 0-3.729 1.571-3.729 4.708 0 3.063 1.66 4.49 3.736 4.49 1.469 0 2.29-.737 2.626-1.498h.108v1.684c0 1.266-.81 1.757-1.919 1.757-1.127 0-1.697-.491-1.907-1.049l-2.362.318c.306 1.45 1.727 2.566 4.209 2.566zm.054-5.696c-1.253 0-1.937-.995-1.937-2.585 0-1.565.672-2.662 1.937-2.662 1.241 0 1.937 1.05 1.937 2.662 0 1.625-.708 2.585-1.937 2.585zM64.89 16.68c2.795 0 4.534-1.913 4.534-4.75 0-2.854-1.74-4.76-4.534-4.76-2.794 0-4.533 1.906-4.533 4.76 0 2.837 1.74 4.75 4.533 4.75zm.012-1.98c-1.289 0-1.948-1.18-1.948-2.787s.66-2.795 1.948-2.795c1.266 0 1.925 1.188 1.925 2.794 0 1.607-.66 2.789-1.925 2.789zm5.676 1.8h2.555V7.29h-2.555v9.21zm1.284-10.398c.761 0 1.385-.582 1.385-1.295 0-.708-.624-1.29-1.385-1.29-.756 0-1.38.582-1.38 1.29 0 .713.624 1.295 1.38 1.295zm2.81 13.851h2.554v-4.928h.078c.354.767 1.127 1.624 2.614 1.624 2.1 0 3.736-1.66 3.736-4.743 0-3.166-1.709-4.737-3.73-4.737-1.54 0-2.278.918-2.62 1.667h-.114V7.29h-2.518v12.664zm2.5-8.058c0-1.643.696-2.693 1.937-2.693 1.265 0 1.937 1.098 1.937 2.693 0 1.606-.684 2.722-1.937 2.722-1.23 0-1.937-1.08-1.937-2.723zm15.342-1.979c-.228-1.697-1.595-2.747-3.921-2.747-2.357 0-3.91 1.092-3.904 2.867-.006 1.379.864 2.272 2.663 2.632l1.595.318c.803.162 1.169.455 1.18.917-.011.546-.605.936-1.498.936-.912 0-1.517-.39-1.673-1.14l-2.513.132c.24 1.763 1.74 2.848 4.18 2.848 2.386 0 4.095-1.217 4.101-3.034-.006-1.33-.875-2.128-2.662-2.494l-1.667-.336c-.858-.186-1.175-.48-1.17-.923-.005-.552.618-.912 1.41-.912.887 0 1.415.486 1.54 1.08l2.34-.144zm7.219 2.662c.006 1.235-.84 1.883-1.757 1.883-.966 0-1.59-.678-1.596-1.763V7.289h-2.554v5.865c.006 2.152 1.265 3.465 3.118 3.465 1.385 0 2.38-.713 2.795-1.792h.096V16.5h2.452V7.29h-2.555v5.288zm4.09 3.922h2.555v-5.53c0-1.02.647-1.697 1.499-1.697.839 0 1.403.576 1.403 1.481V16.5h2.476v-5.625c0-.953.546-1.6 1.475-1.6.816 0 1.427.509 1.427 1.534v5.69h2.549v-6.193c0-1.997-1.187-3.137-2.902-3.137-1.349 0-2.399.69-2.776 1.745h-.097c-.293-1.067-1.235-1.745-2.5-1.745-1.241 0-2.182.66-2.566 1.745h-.108V7.29h-2.435v9.21z"/></g><defs><clipPath id="clip0_11_87"><path fill="#fff" d="M0 0h118v24H0z"/></clipPath></defs></svg>
